; generated by Slic3r 1.3.1-dev (Build 54a31ee) on 2020-03-21 at 15:35:25

; 
;



; external perimeters extrusion width = 0.44mm (2.86mm^3/s)
; perimeters extrusion width = 0.56mm (4.14mm^3/s)
; infill extrusion width = 0.50mm (3.66mm^3/s)
; solid infill extrusion width = 0.56mm (3.10mm^3/s)
; top infill extrusion width = 0.56mm (3.10mm^3/s)

M107
G92 E0
;D3D:START:START
T0
M104 S215 T0

G21
G90
M107
T0
G28
G29
M109 T0 S215 T0
G0 F3000
M107
T0
G92 E0
G0 X0 Y149 Z0.1 F3600
G1 Y49 E6.5 F1200
G0 Z1
G92 E0
; Filament gcode

G21 ; set units to millimeters
G90 ; use absolute coordinates
M82 ; use absolute distances for extrusion
G92 E0
G1 Z0.300 F7800.000
G1 E-2.00000 F2400.00000
G92 E0
G1 X51.534 Y74.681 F7800.000
G1 E2.00000 F2400.00000
G1 F600.000
G1 X51.616 Y74.539 E2.00542
G1 X51.726 Y74.418 E2.01085
G1 X51.858 Y74.321 E2.01628
G1 X52.008 Y74.255 E2.02171
G1 X52.168 Y74.220 E2.02714
G1 X52.332 Y74.220 E2.03257
G1 X52.492 Y74.255 E2.03800
G1 X52.642 Y74.321 E2.04342
G1 X52.774 Y74.418 E2.04886
G1 X52.884 Y74.539 E2.05428
G1 X52.966 Y74.681 E2.05971
G1 X53.017 Y74.837 E2.06514
G1 X53.034 Y75.000 E2.07057
G1 X53.017 Y75.163 E2.07600
G1 X52.966 Y75.319 E2.08143
G1 X52.884 Y75.461 E2.08685
G1 X52.774 Y75.582 E2.09228
G1 X52.642 Y75.679 E2.09771
G1 X52.492 Y75.745 E2.10314
G1 X52.332 Y75.780 E2.10857
G1 X52.168 Y75.780 E2.11400
G1 X52.008 Y75.745 E2.11943
G1 X51.858 Y75.679 E2.12485
G1 X51.726 Y75.582 E2.13028
G1 X51.616 Y75.461 E2.13571
G1 X51.534 Y75.319 E2.14114
G1 X51.483 Y75.163 E2.14657
G1 X51.466 Y75.000 E2.15200
G1 X51.483 Y74.837 E2.15743
G1 X51.515 Y74.738 E2.16087
G1 X51.290 Y74.573 F7800.000
G1 F600.000
G1 X51.400 Y74.382 E2.16815
G1 X51.547 Y74.219 E2.17542
G1 X51.725 Y74.090 E2.18270
G1 X51.925 Y74.001 E2.18998
G1 X52.140 Y73.955 E2.19726
G1 X52.360 Y73.955 E2.20454
G1 X52.575 Y74.001 E2.21182
G1 X52.775 Y74.090 E2.21909
G1 X52.953 Y74.219 E2.22637
G1 X53.100 Y74.382 E2.23365
G1 X53.210 Y74.573 E2.24093
G1 X53.278 Y74.782 E2.24821
G1 X53.301 Y75.000 E2.25549
G1 X53.278 Y75.218 E2.26277
G1 X53.210 Y75.427 E2.27005
G1 X53.100 Y75.618 E2.27732
G1 X52.953 Y75.781 E2.28460
G1 X52.775 Y75.910 E2.29188
G1 X52.575 Y75.999 E2.29916
G1 X52.360 Y76.045 E2.30644
G1 X52.140 Y76.045 E2.31372
G1 X51.925 Y75.999 E2.32099
G1 X51.725 Y75.910 E2.32827
G1 X51.547 Y75.781 E2.33555
G1 X51.400 Y75.618 E2.34283
G1 X51.290 Y75.427 E2.35011
G1 X51.222 Y75.218 E2.35739
G1 X51.199 Y75.000 E2.36466
G1 X51.222 Y74.782 E2.37194
G1 X51.271 Y74.630 E2.37724
G1 X51.046 Y74.464 F7800.000
G1 F600.000
G1 X51.184 Y74.225 E2.38636
G1 X51.368 Y74.021 E2.39549
G1 X51.591 Y73.859 E2.40462
G1 X51.843 Y73.747 E2.41375
G1 X52.112 Y73.689 E2.42287
G1 X52.388 Y73.689 E2.43200
G1 X52.657 Y73.747 E2.44113
G1 X52.909 Y73.859 E2.45026
G1 X53.132 Y74.021 E2.45939
G1 X53.316 Y74.225 E2.46852
G1 X53.454 Y74.464 E2.47764
G1 X53.539 Y74.726 E2.48677
G1 X53.568 Y75.000 E2.49590
G1 X53.539 Y75.274 E2.50503
G1 X53.454 Y75.536 E2.51416
G1 X53.316 Y75.775 E2.52328
G1 X53.132 Y75.979 E2.53241
G1 X52.909 Y76.141 E2.54154
G1 X52.657 Y76.253 E2.55067
G1 X52.388 Y76.311 E2.55980
G1 X52.112 Y76.311 E2.56893
G1 X51.843 Y76.253 E2.57805
G1 X51.591 Y76.141 E2.58718
G1 X51.368 Y75.979 E2.59631
G1 X51.184 Y75.775 E2.60544
G1 X51.046 Y75.536 E2.61457
G1 X50.961 Y75.274 E2.62370
G1 X50.932 Y75.000 E2.63282
G1 X50.961 Y74.726 E2.64195
G1 X51.027 Y74.521 E2.64909
G1 X50.802 Y74.355 F7800.000
G1 F1800.000
G1 X50.968 Y74.068 E2.66007
G1 X51.189 Y73.822 E2.67105
G1 X51.457 Y73.627 E2.68203
G1 X51.760 Y73.493 E2.69301
G1 X52.084 Y73.424 E2.70398
G1 X52.416 Y73.424 E2.71496
G1 X52.740 Y73.493 E2.72594
G1 X53.043 Y73.627 E2.73692
G1 X53.311 Y73.822 E2.74790
G1 X53.532 Y74.068 E2.75887
G1 X53.698 Y74.355 E2.76985
G1 X53.800 Y74.670 E2.78083
G1 X53.835 Y75.000 E2.79181
G1 X53.800 Y75.330 E2.80279
G1 X53.698 Y75.645 E2.81376
G1 X53.532 Y75.932 E2.82474
G1 X53.311 Y76.178 E2.83572
G1 X53.043 Y76.373 E2.84670
G1 X52.740 Y76.507 E2.85768
G1 X52.416 Y76.576 E2.86865
G1 X52.084 Y76.576 E2.87963
G1 X51.760 Y76.507 E2.89061
G1 X51.457 Y76.373 E2.90159
G1 X51.189 Y76.178 E2.91257
G1 X50.968 Y75.932 E2.92354
G1 X50.802 Y75.645 E2.93452
G1 X50.700 Y75.330 E2.94550
G1 X50.665 Y75.000 E2.95648
G1 X50.700 Y74.670 E2.96746
G1 X50.783 Y74.412 E2.97645
G1 X51.132 Y74.321 F7800.000
G1 X52.023 Y74.604 F7800.000
G1 F600.000
G1 X51.888 Y74.656 E2.98219
G1 X51.801 Y74.719 E2.98648
G1 X51.729 Y74.800 E2.99078
G1 X51.646 Y74.981 E2.99872
G1 X52.230 Y74.398 E3.03154
G1 X52.407 Y74.383 E3.03862
G1 X52.513 Y74.405 E3.04291
G1 X52.622 Y74.456 E3.04769
G1 X51.708 Y75.371 E3.09908
G1 X51.801 Y75.487 E3.10503
G1 X51.950 Y75.578 E3.11199
G1 X52.830 Y74.699 E3.16141
G1 X52.870 Y74.897 E3.16942
G1 X52.825 Y75.107 E3.17797
G1 X52.771 Y75.200 E3.18226
G1 X52.492 Y75.488 E3.19819
M106 S255
G1 Z0.500 F7800.000
G1 X51.148 Y74.509 F7800.000
G1 F600.000
G1 X51.274 Y74.291 E3.20903
G1 X51.443 Y74.103 E3.21988
G1 X51.647 Y73.955 E3.23072
G1 X51.877 Y73.853 E3.24156
G1 X52.124 Y73.800 E3.25241
G1 X52.376 Y73.800 E3.26325
G1 X52.623 Y73.853 E3.27410
G1 X52.853 Y73.955 E3.28494
G1 X53.057 Y74.103 E3.29578
G1 X53.226 Y74.291 E3.30663
G1 X53.352 Y74.509 E3.31747
G1 X53.430 Y74.749 E3.32832
G1 X53.456 Y75.000 E3.33916
G1 X53.430 Y75.251 E3.35000
G1 X53.352 Y75.491 E3.36085
G1 X53.226 Y75.709 E3.37169
G1 X53.057 Y75.897 E3.38254
G1 X52.853 Y76.045 E3.39338
G1 X52.623 Y76.147 E3.40422
G1 X52.376 Y76.200 E3.41507
G1 X52.124 Y76.200 E3.42591
G1 X51.877 Y76.147 E3.43676
G1 X51.647 Y76.045 E3.44760
G1 X51.443 Y75.897 E3.45844
G1 X51.274 Y75.709 E3.46929
G1 X51.148 Y75.491 E3.48013
G1 X51.070 Y75.251 E3.49098
G1 X51.044 Y75.000 E3.50182
G1 X51.070 Y74.749 E3.51266
G1 X51.129 Y74.566 E3.52093
G1 X50.673 Y74.298 F7800.000
G1 F600.000
G1 X50.853 Y73.985 E3.53645
G1 X51.095 Y73.717 E3.55197
G1 X51.387 Y73.505 E3.56748
G1 X51.717 Y73.358 E3.58300
G1 X52.070 Y73.283 E3.59852
G1 X52.430 Y73.283 E3.61403
G1 X52.783 Y73.358 E3.62955
G1 X53.113 Y73.505 E3.64507
G1 X53.405 Y73.717 E3.66059
G1 X53.647 Y73.985 E3.67610
G1 X53.827 Y74.298 E3.69162
G1 X53.939 Y74.641 E3.70714
G1 X53.976 Y75.000 E3.72266
G1 X53.939 Y75.359 E3.73817
G1 X53.827 Y75.702 E3.75369
G1 X53.647 Y76.015 E3.76921
G1 X53.405 Y76.283 E3.78473
G1 X53.113 Y76.495 E3.80024
G1 X52.783 Y76.642 E3.81576
G1 X52.430 Y76.717 E3.83128
G1 X52.070 Y76.717 E3.84680
G1 X51.717 Y76.642 E3.86231
G1 X51.387 Y76.495 E3.87783
G1 X51.095 Y76.283 E3.89335
G1 X50.853 Y76.015 E3.90887
G1 X50.673 Y75.702 E3.92438
G1 X50.561 Y75.359 E3.93990
G1 X50.524 Y75.000 E3.95542
G1 X50.561 Y74.641 E3.97093
G1 X50.654 Y74.355 E3.98387
G1 X50.198 Y74.086 F7800.000
M106 S255

G1 F2400.000
G1 X50.433 Y73.680 E4.00841
G1 X50.747 Y73.331 E4.03294
G1 X51.127 Y73.055 E4.05748
G1 X51.556 Y72.864 E4.08201
G1 X52.015 Y72.766 E4.10655
G1 X52.485 Y72.766 E4.13108
G1 X52.944 Y72.864 E4.15561
G1 X53.373 Y73.055 E4.18015
G1 X53.753 Y73.331 E4.20468
G1 X54.067 Y73.680 E4.22922
G1 X54.302 Y74.086 E4.25375
G1 X54.447 Y74.533 E4.27829
G1 X54.496 Y75.000 E4.30282
G1 X54.447 Y75.467 E4.32735
G1 X54.302 Y75.914 E4.35189
G1 X54.067 Y76.320 E4.37642
G1 X53.753 Y76.669 E4.40096
G1 X53.373 Y76.945 E4.42549
G1 X52.944 Y77.136 E4.45003
G1 X52.485 Y77.234 E4.47456
G1 X52.015 Y77.234 E4.49910
G1 X51.556 Y77.136 E4.52363
G1 X51.127 Y76.945 E4.54816
G1 X50.747 Y76.669 E4.57270
G1 X50.433 Y76.320 E4.59723
G1 X50.198 Y75.914 E4.62177
G1 X50.053 Y75.467 E4.64630
G1 X50.004 Y75.000 E4.67084
G1 X50.053 Y74.533 E4.69537
G1 X50.179 Y74.143 E4.71677
M106 S255

G1 X49.778 Y73.899 F7800.000
M106 S255

G1 F2400.000
G1 X50.061 Y73.410 E4.74633
G1 X50.439 Y72.989 E4.77588
G1 X50.897 Y72.657 E4.80543
G1 X51.414 Y72.427 E4.83499
G1 X51.967 Y72.309 E4.86454
G1 X52.533 Y72.309 E4.89410
G1 X53.086 Y72.427 E4.92365
G1 X53.603 Y72.657 E4.95321
G1 X54.061 Y72.989 E4.98276
G1 X54.439 Y73.410 E5.01231
G1 X54.722 Y73.899 E5.04187
G1 X54.897 Y74.437 E5.07142
G1 X54.956 Y75.000 E5.10098
G1 X54.897 Y75.563 E5.13053
G1 X54.722 Y76.101 E5.16008
G1 X54.439 Y76.590 E5.18964
G1 X54.061 Y77.011 E5.21919
G1 X53.603 Y77.343 E5.24875
G1 X53.086 Y77.573 E5.27830
G1 X52.533 Y77.691 E5.30786
G1 X51.967 Y77.691 E5.33741
G1 X51.414 Y77.573 E5.36696
G1 X50.897 Y77.343 E5.39652
G1 X50.439 Y77.011 E5.42607
G1 X50.061 Y76.590 E5.45563
G1 X49.778 Y76.101 E5.48518
G1 X49.603 Y75.563 E5.51473
G1 X49.544 Y75.000 E5.54429
G1 X49.603 Y74.437 E5.57384
G1 X49.760 Y73.956 E5.60026
M106 S255

G1 E3.60026 F2400.00000
G92 E0
G1 X51.776 Y75.312 F7800.000
G1 E2.00000 F2400.00000
G1 F600.000
G1 X51.824 Y75.480 E2.00904
G1 X51.896 Y75.605 E2.01644
G1 X51.992 Y75.711 E2.02385
G1 X52.108 Y75.796 E2.03125
G1 X52.239 Y75.854 E2.03866
G1 X52.340 Y75.875 E2.04398
G1 X51.374 Y74.910 E2.11446
G1 X51.362 Y74.799 E2.12020
G1 X51.377 Y74.656 E2.12760
G1 X51.422 Y74.520 E2.13502
G1 X51.493 Y74.395 E2.14242
G1 X51.613 Y74.271 E2.15131
G1 X52.978 Y75.636 E2.25089
G1 X52.912 Y74.692 F7800.000
G1 F600.000
G1 X52.510 Y74.290 E2.28024
G1 Z0.700 F7800.000
G1 X50.660 Y74.292 F7800.000
G1 F745.004
G1 X50.842 Y73.977 E2.29589
G1 X51.085 Y73.706 E2.31153
G1 X51.380 Y73.492 E2.32718
G1 X51.712 Y73.344 E2.34283
G1 X52.068 Y73.269 E2.35848
G1 X52.432 Y73.269 E2.37412
G1 X52.788 Y73.344 E2.38977
G1 X53.120 Y73.492 E2.40542
G1 X53.415 Y73.706 E2.42107
G1 X53.658 Y73.977 E2.43672
G1 X53.840 Y74.292 E2.45236
G1 X53.953 Y74.638 E2.46801
G1 X53.991 Y75.000 E2.48366
G1 X53.953 Y75.362 E2.49930
G1 X53.840 Y75.708 E2.51496
G1 X53.658 Y76.023 E2.53060
G1 X53.415 Y76.294 E2.54625
G1 X53.120 Y76.508 E2.56190
G1 X52.788 Y76.656 E2.57754
G1 X52.432 Y76.731 E2.59319
G1 X52.068 Y76.731 E2.60884
G1 X51.712 Y76.656 E2.62449
G1 X51.380 Y76.508 E2.64014
G1 X51.085 Y76.294 E2.65578
G1 X50.842 Y76.023 E2.67143
G1 X50.660 Y75.708 E2.68708
G1 X50.547 Y75.362 E2.70273
G1 X50.509 Y75.000 E2.71837
G1 X50.547 Y74.638 E2.73402
G1 X50.641 Y74.349 E2.74709
G1 X50.185 Y74.080 F7800.000
G1 F745.004
G1 X50.421 Y73.671 E2.76741
G1 X50.737 Y73.320 E2.78773
G1 X51.120 Y73.042 E2.80805
G1 X51.551 Y72.850 E2.82837
G1 X52.014 Y72.752 E2.84870
G1 X52.486 Y72.752 E2.86902
G1 X52.949 Y72.850 E2.88934
G1 X53.380 Y73.042 E2.90966
G1 X53.763 Y73.320 E2.92998
G1 X54.079 Y73.671 E2.95030
G1 X54.315 Y74.080 E2.97062
G1 X54.461 Y74.530 E2.99094
G1 X54.511 Y75.000 E3.01126
G1 X54.461 Y75.470 E3.03158
G1 X54.315 Y75.920 E3.05191
G1 X54.079 Y76.329 E3.07223
G1 X53.763 Y76.680 E3.09255
G1 X53.380 Y76.958 E3.11287
G1 X52.949 Y77.150 E3.13319
G1 X52.486 Y77.248 E3.15351
G1 X52.014 Y77.248 E3.17383
G1 X51.551 Y77.150 E3.19415
G1 X51.120 Y76.958 E3.21448
G1 X50.737 Y76.680 E3.23480
G1 X50.421 Y76.329 E3.25512
G1 X50.185 Y75.920 E3.27544
G1 X50.039 Y75.470 E3.29576
G1 X49.989 Y75.000 E3.31608
G1 X50.039 Y74.530 E3.33640
G1 X50.166 Y74.137 E3.35414
G1 X49.710 Y73.869 F7800.000
G1 F745.004
G1 X50.000 Y73.366 E3.37914
G1 X50.389 Y72.934 E3.40413
G1 X50.860 Y72.592 E3.42913
G1 X51.391 Y72.355 E3.45412
G1 X51.959 Y72.235 E3.47912
G1 X52.541 Y72.235 E3.50411
G1 X53.109 Y72.355 E3.52910
G1 X53.640 Y72.592 E3.55410
G1 X54.111 Y72.934 E3.57909
G1 X54.500 Y73.366 E3.60409
G1 X54.790 Y73.869 E3.62908
G1 X54.970 Y74.422 E3.65408
G1 X55.031 Y75.000 E3.67907
G1 X54.970 Y75.578 E3.70406
G1 X54.790 Y76.131 E3.72906
G1 X54.500 Y76.634 E3.75405
G1 X54.111 Y77.066 E3.77905
G1 X53.640 Y77.408 E3.80404
G1 X53.109 Y77.645 E3.82904
G1 X52.541 Y77.765 E3.85403
G1 X51.959 Y77.765 E3.87903
G1 X51.391 Y77.645 E3.90402
G1 X50.860 Y77.408 E3.92901
G1 X50.389 Y77.066 E3.95401
G1 X50.000 Y76.634 E3.97900
G1 X49.710 Y76.131 E4.00400
G1 X49.530 Y75.578 E4.02899
G1 X49.469 Y75.000 E4.05399
G1 X49.530 Y74.422 E4.07898
G1 X49.691 Y73.926 E4.10140
G1 X49.290 Y73.682 F7800.000
M106 S255

G1 F2400.000
G1 X49.629 Y73.095 E4.13679
G1 X50.082 Y72.592 E4.17218
G1 X50.630 Y72.194 E4.20757
G1 X51.249 Y71.918 E4.24296
G1 X51.911 Y71.777 E4.27835
G1 X52.589 Y71.777 E4.31374
G1 X53.251 Y71.918 E4.34913
G1 X53.870 Y72.194 E4.38453
G1 X54.418 Y72.592 E4.41992
G1 X54.871 Y73.095 E4.45531
G1 X55.210 Y73.682 E4.49070
G1 X55.419 Y74.326 E4.52609
G1 X55.490 Y75.000 E4.56148
G1 X55.419 Y75.674 E4.59687
G1 X55.210 Y76.318 E4.63226
G1 X54.871 Y76.905 E4.66766
G1 X54.418 Y77.408 E4.70305
G1 X53.870 Y77.806 E4.73844
G1 X53.251 Y78.082 E4.77383
G1 X52.589 Y78.223 E4.80922
G1 X51.911 Y78.223 E4.84461
G1 X51.249 Y78.082 E4.88000
G1 X50.630 Y77.806 E4.91539
G1 X50.082 Y77.408 E4.95079
G1 X49.629 Y76.905 E4.98618
G1 X49.290 Y76.318 E5.02157
G1 X49.081 Y75.674 E5.05696
G1 X49.010 Y75.000 E5.09235
G1 X49.081 Y74.326 E5.12774
G1 X49.271 Y73.739 E5.16000
M106 S255

G1 E3.16000 F2400.00000
G92 E0
G1 X51.635 Y73.891 F7800.000
G1 E2.00000 F2400.00000
G1 F745.004
G1 X51.061 Y74.483 E2.04179
G1 X50.934 Y74.704 E2.05472
G1 X50.855 Y74.947 E2.06767
G1 X50.828 Y75.201 E2.08060
G1 X50.874 Y75.514 E2.09663
G1 X52.764 Y73.624 E2.23212
G1 X53.062 Y73.742 E2.24834
G1 X53.311 Y73.939 E2.26446
G1 X51.189 Y76.061 E2.41656
G1 X51.438 Y76.258 E2.43268
G1 X51.672 Y76.362 E2.44562
G1 X51.736 Y76.376 E2.44896
G1 X53.626 Y74.486 E2.58444
G1 X53.672 Y74.799 E2.60048
G1 X53.645 Y75.053 E2.61341
G1 X53.566 Y75.296 E2.62635
G1 X53.439 Y75.517 E2.63929
G1 X52.865 Y76.109 E2.68108
G1 Z0.900 F7800.000
G1 E0.68108 F2400.00000
G92 E0
G1 X50.249 Y74.109 F7800.000
G1 E2.00000 F2400.00000
G1 F993.784
G1 X50.478 Y73.713 E2.01968
G1 X50.785 Y73.372 E2.03937
G1 X51.155 Y73.103 E2.05905
G1 X51.573 Y72.917 E2.07874
G1 X52.021 Y72.822 E2.09843
G1 X52.479 Y72.822 E2.11811
G1 X52.927 Y72.917 E2.13780
G1 X53.345 Y73.103 E2.15748
G1 X53.715 Y73.372 E2.17717
G1 X54.022 Y73.713 E2.19685
G1 X54.251 Y74.109 E2.21654
G1 X54.392 Y74.545 E2.23622
G1 X54.440 Y75.000 E2.25591
G1 X54.392 Y75.455 E2.27559
G1 X54.251 Y75.891 E2.29528
G1 X54.022 Y76.287 E2.31497
G1 X53.715 Y76.628 E2.33465
G1 X53.345 Y76.897 E2.35434
G1 X52.927 Y77.083 E2.37402
G1 X52.479 Y77.178 E2.39371
G1 X52.021 Y77.178 E2.41339
G1 X51.573 Y77.083 E2.43308
G1 X51.155 Y76.897 E2.45276
G1 X50.785 Y76.628 E2.47245
G1 X50.478 Y76.287 E2.49213
G1 X50.249 Y75.891 E2.51182
G1 X50.108 Y75.455 E2.53151
G1 X50.060 Y75.000 E2.55119
G1 X50.108 Y74.545 E2.57087
G1 X50.231 Y74.166 E2.58798
G1 X49.774 Y73.898 F7800.000
G1 F993.784
G1 X50.058 Y73.407 E2.61234
G1 X50.437 Y72.986 E2.63670
G1 X50.895 Y72.653 E2.66106
G1 X51.413 Y72.423 E2.68542
G1 X51.967 Y72.305 E2.70978
G1 X52.533 Y72.305 E2.73413
G1 X53.087 Y72.423 E2.75849
G1 X53.605 Y72.653 E2.78285
G1 X54.063 Y72.986 E2.80721
G1 X54.442 Y73.407 E2.83157
G1 X54.726 Y73.898 E2.85593
G1 X54.901 Y74.437 E2.88029
G1 X54.960 Y75.000 E2.90464
G1 X54.901 Y75.563 E2.92900
G1 X54.726 Y76.102 E2.95336
G1 X54.442 Y76.593 E2.97772
G1 X54.063 Y77.014 E3.00208
G1 X53.605 Y77.347 E3.02644
G1 X53.087 Y77.577 E3.05080
G1 X52.533 Y77.695 E3.07516
G1 X51.967 Y77.695 E3.09951
G1 X51.413 Y77.577 E3.12387
G1 X50.895 Y77.347 E3.14823
G1 X50.437 Y77.014 E3.17259
G1 X50.058 Y76.593 E3.19695
G1 X49.774 Y76.102 E3.22131
G1 X49.599 Y75.563 E3.24567
G1 X49.540 Y75.000 E3.27003
G1 X49.599 Y74.437 E3.29438
G1 X49.756 Y73.955 E3.31617
G1 X49.299 Y73.686 F7800.000
G1 F993.784
G1 X49.637 Y73.101 E3.34520
G1 X50.089 Y72.600 E3.37423
G1 X50.635 Y72.203 E3.40326
G1 X51.252 Y71.928 E3.43229
G1 X51.912 Y71.788 E3.46133
G1 X52.588 Y71.788 E3.49036
G1 X53.248 Y71.928 E3.51939
G1 X53.865 Y72.203 E3.54842
G1 X54.411 Y72.600 E3.57745
G1 X54.863 Y73.101 E3.60649
G1 X55.201 Y73.686 E3.63552
G1 X55.409 Y74.328 E3.66455
G1 X55.480 Y75.000 E3.69358
G1 X55.409 Y75.672 E3.72261
G1 X55.201 Y76.314 E3.75165
G1 X54.863 Y76.899 E3.78068
G1 X54.411 Y77.400 E3.80971
G1 X53.865 Y77.797 E3.83874
G1 X53.248 Y78.072 E3.86777
G1 X52.588 Y78.212 E3.89681
G1 X51.912 Y78.212 E3.92584
G1 X51.252 Y78.072 E3.95487
G1 X50.635 Y77.797 E3.98390
G1 X50.089 Y77.400 E4.01294
G1 X49.637 Y76.899 E4.04197
G1 X49.299 Y76.314 E4.07100
G1 X49.091 Y75.672 E4.10003
G1 X49.020 Y75.000 E4.12906
G1 X49.091 Y74.328 E4.15810
G1 X49.281 Y73.743 E4.18455
G1 X48.879 Y73.499 F7800.000
M106 S255

G1 F2400.000
G1 X49.265 Y72.831 E4.22485
G1 X49.781 Y72.258 E4.26514
G1 X50.405 Y71.805 E4.30544
G1 X51.110 Y71.491 E4.34574
G1 X51.864 Y71.331 E4.38604
G1 X52.636 Y71.331 E4.42633
